site/static/images/icons/terminal_icon.svg

<svg fill="none" height="26" viewBox="0 0 26 26" width="26" xmlns="http://www.w3.org/2000/svg"><g fill="#0075ff"><circle cx="13" cy="13" opacity=".15" r="13"/><path clip-rule="evenodd" d="m5 7.75c0-.9665.7835-1.75 1.75-1.75h12.5c.9665 0 1.75.7835 1.75 1.75v10.5c0 .9665-.7835 1.75-1.75 1.75h-12.5c-.9665 0-1.75-.7835-1.75-1.75zm1.75-.25c-.13807 0-.25.11193-.25.25v10.5c0 .1381.11193.25.25.25h12.5c.1381 0 .25-.1119.25-.25v-10.5c0-.13807-.1119-.25-.25-.25zm5.5 5.5c0 .1989-.079.3897-.2197.5303l-2.24996 2.25c-.29289.2929-.76777.2929-1.06066 0s-.29289-.7677 0-1.0606l1.71962-1.7197-1.71961-1.7196c-.2929-.2929-.29291-.7678-.00002-1.0607.29289-.29286.76776-.29287 1.06066 0l2.24997 2.25c.1407.1406.2197.3314.2197.5303zm1.5 1.5c-.4142 0-.75.3358-.75.75s.3358.75.75.75h3c.4142 0 .75-.3358.75-.75s-.3358-.75-.75-.75z" fill-rule="evenodd"/></g></svg>

<svg width="26" height="26" viewBox="0 0 26 26" fill="none" xmlns="http://www.w3.org/2000/svg">
<circle opacity="0.15" cx="13" cy="13" r="13" fill="#0075ff"/>
<path fill-rule="evenodd" clip-rule="evenodd" d="M5 7.75C5 6.7835 5.7835 6 6.75 6H19.25C20.2165 6 21 6.7835 21 7.75V18.25C21 19.2165 20.2165 20 19.25 20H6.75C5.7835 20 5 19.2165 5 18.25V7.75ZM6.75 7.5C6.61193 7.5 6.5 7.61193 6.5 7.75V18.25C6.5 18.3881 6.61193 18.5 6.75 18.5H19.25C19.3881 18.5 19.5 18.3881 19.5 18.25V7.75C19.5 7.61193 19.3881 7.5 19.25 7.5H6.75ZM12.25 13C12.25 13.1989 12.171 13.3897 12.0303 13.5303L9.78034 15.7803C9.48745 16.0732 9.01257 16.0732 8.71968 15.7803C8.42679 15.4874 8.42679 15.0126 8.71968 14.7197L10.4393 13L8.71969 11.2804C8.42679 10.9875 8.42678 10.5126 8.71967 10.2197C9.01256 9.92684 9.48743 9.92683 9.78033 10.2197L12.0303 12.4697C12.171 12.6103 12.25 12.8011 12.25 13ZM13.75 14.5C13.3358 14.5 13 14.8358 13 15.25C13 15.6642 13.3358 16 13.75 16H16.75C17.1642 16 17.5 15.6642 17.5 15.25C17.5 14.8358 17.1642 14.5 16.75 14.5H13.75Z" fill="#0075ff"/>
</svg>
